X:1
T:fur elise
T:fur elise
T:fur elise
T:ryan
T:ryan
T:ryan
C:ryan
Z:ryan
Z:ryan
%%score { 1 | 2 }
L:1/8
Q:1/4=85
M:6/4
K:C
V:1 treble nm="Piano" snm="Pno."
V:2 bass 
V:1
 e2 ^d2 e2 d2 e2 B2 | d6 c6 | A6 C2 E2 A2 | B6 E2 ^G2 B2 | c6 z2 z4 | e2 ^d2 e2 d2 e2 B2 | d6 c6 | %7
 A6 C2 E2 A2 | B4- B2 E2 c2 B2 | A4 z8 | B2 c2 d2 e4- e2 | G2 f2 e2 d6 | F2 e2 d2 c6 | %13
 E2 d2 c2 B4- B2 | z4 E2 e2 E2 e2 | e2 e'2 ^d2 e2 d2 e2 | ^d2 e2 d2 e2 d2 e2 | ^d2 e2 B2 =d2 c4 | %18
 A6 C2 E2 A2 | B6 E2 ^G2 B2 | c4- c2 z2 z4 | e2 ^d2 e2 d2 e2 B2 | d6 c6 | A6 C2 E2 A2 | %24
 B6 E2 c2 B2 | [CA]12 | [CA]12- | [CA]12 | A,12 | A12 | a12 | a'12 |] %32
V:2
 z12 | z12 | A,,2 E,2 A,2 z2 z4 | E,,2 E,2 ^G,2 z2 z4 | A,,2 E,2 A,2 z2 z4 | z12 | z12 | %7
 A,,2 E,2 A,2 z2 z4 | E,,2 E,2 ^G,2 z2 z4 | A,,2 E,2 A,2 z2 z4 | z6 C,2 G,2 C2 | z6 G,,2 G,2 B,2 | %12
 z6 A,,2 E,2 A,2 | z6 E,,2 E,2 E2 | E,2 E2 z8 | z12 | z12 | z12 | A,,2 E,2 A,2 z2 z4 | %19
 E,,2 E,2 ^G,2 z2 z4 | A,,2 E,2 A,2 z2 z4 | z12 | z12 | A,,2 E,2 A,2 z2 z4 | E,,2 E,2 ^G,2 z2 z4 | %25
 [A,,,A,,]12- | [A,,,A,,]12- | [A,,,A,,]12 | A,12 | A,,12 | A,,,12 | A,,,,12 |] %32

